public/assets/svg/ios.svg

<svg width="153" height="38" viewBox="0 0 153 38" fill="none" xmlns="http://www.w3.org/2000/svg">
<path d="M23.1981 17.869C23.1523 13.6787 26.6363 11.6369 26.8044 11.5455C24.8332 8.68083 21.777 8.28465 20.7074 8.25418C18.1402 7.97991 15.6494 9.77792 14.3506 9.77792C13.0517 9.77792 11.0041 8.26942 8.83424 8.31513C6.03787 8.36084 3.42486 9.97601 2.00375 12.4749C-0.945425 17.5795 1.255 25.0763 4.08193 29.2056C5.50304 31.2322 7.15336 33.4874 9.32322 33.3959C11.4472 33.3045 12.2418 32.055 14.7937 32.055C17.3456 32.055 18.0638 33.3959 20.2795 33.3502C22.5563 33.3197 23.9927 31.3236 25.3527 29.2818C26.9877 26.9657 27.6448 24.6801 27.6754 24.5735C27.6295 24.5582 23.2592 22.8973 23.2134 17.869H23.1981Z" fill="white"/>
<path d="M19.0271 5.54198C20.1732 4.1249 20.9525 2.18975 20.7233 0.224121C19.073 0.300308 17.0101 1.36693 15.8182 2.75353C14.7638 3.97253 13.8317 5.98387 14.0762 7.87331C15.9251 8.01044 17.8352 6.94382 19.0271 5.54198Z" fill="white"/>
<path d="M49.987 28.2913H42.7593L41.0173 33.4111H37.9611L44.8069 14.4862H47.9853L54.831 33.4111H51.7138L49.9718 28.2913H49.987ZM43.508 25.9295H49.2383L46.4113 17.6252H46.3349L43.508 25.9295Z" fill="white"/>
<path d="M69.6379 26.5084C69.6379 30.7901 67.3305 33.5481 63.8618 33.5481C61.8905 33.5481 60.3319 32.6643 59.5068 31.1406H59.4456V37.967H56.6034V19.6059H59.3539V21.9067H59.3998C60.1944 20.4287 61.8753 19.4687 63.8006 19.4687C67.3152 19.4687 69.6226 22.2419 69.6226 26.5084H69.6379ZM66.7193 26.5084C66.7193 23.72 65.2676 21.8763 63.0672 21.8763C60.8667 21.8763 59.4304 23.7505 59.4304 26.5084C59.4304 29.2664 60.8973 31.1558 63.0672 31.1558C65.237 31.1558 66.7193 29.3274 66.7193 26.5084Z" fill="white"/>
<path d="M84.8575 26.5084C84.8575 30.7901 82.5501 33.5481 79.0814 33.5481C77.1102 33.5481 75.5516 32.6643 74.7264 31.1406H74.6653V37.967H71.8231V19.6059H74.5736V21.9067H74.6194C75.414 20.4287 77.0949 19.4687 79.0203 19.4687C82.5348 19.4687 84.8422 22.2419 84.8422 26.5084H84.8575ZM81.9389 26.5084C81.9389 23.72 80.4872 21.8763 78.2868 21.8763C76.0864 21.8763 74.65 23.7505 74.65 26.5084C74.65 29.2664 76.1169 31.1558 78.2868 31.1558C80.4567 31.1558 81.9389 29.3274 81.9389 26.5084Z" fill="white"/>
<path d="M94.9282 28.1388C95.1421 30.013 96.9605 31.2472 99.4665 31.2472C101.973 31.2472 103.577 30.013 103.577 28.3216C103.577 26.8588 102.538 25.9751 100.078 25.3656L97.6176 24.7713C94.1336 23.9332 92.5138 22.3028 92.5138 19.6668C92.5138 16.406 95.3713 14.1661 99.4207 14.1661C103.47 14.1661 106.175 16.406 106.266 19.6668H103.394C103.226 17.7773 101.652 16.6345 99.3749 16.6345C97.098 16.6345 95.5241 17.7926 95.5241 19.4687C95.5241 20.8096 96.5174 21.5867 98.9623 22.1962L101.056 22.7143C104.952 23.6285 106.572 25.198 106.572 27.9559C106.572 31.491 103.745 33.7157 99.2526 33.7157C95.0504 33.7157 92.2082 31.552 92.0248 28.1235H94.9282V28.1388Z" fill="white"/>
<path d="M112.714 16.3449V19.6058H115.343V21.8456H112.714V29.4491C112.714 30.6376 113.234 31.1862 114.395 31.1862C114.686 31.1862 115.144 31.1405 115.327 31.1252V33.3499C115.007 33.4261 114.38 33.487 113.754 33.487C110.957 33.487 109.857 32.4357 109.857 29.7691V21.8609H107.84V19.621H109.857V16.3602H112.714V16.3449Z" fill="white"/>
<path d="M116.856 26.5085C116.856 22.1658 119.423 19.4384 123.411 19.4384C127.4 19.4384 129.967 22.1658 129.967 26.5085C129.967 30.8512 127.43 33.5787 123.411 33.5787C119.393 33.5787 116.856 30.8664 116.856 26.5085ZM127.094 26.5085C127.094 23.5372 125.719 21.7697 123.427 21.7697C121.135 21.7697 119.759 23.5372 119.759 26.5085C119.759 29.4798 121.119 31.2474 123.427 31.2474C125.734 31.2474 127.094 29.5103 127.094 26.5085Z" fill="white"/>
<path d="M132.335 19.6059H135.04V21.9525H135.101C135.529 20.3983 136.797 19.4536 138.432 19.4536C138.844 19.4536 139.181 19.5145 139.41 19.5602V22.2115C139.181 22.1201 138.692 22.0439 138.142 22.0439C136.308 22.0439 135.177 23.2782 135.177 25.2133V33.3958H132.335V19.6059Z" fill="white"/>
<path d="M152.49 29.3579C152.108 31.8569 149.663 33.5787 146.53 33.5787C142.511 33.5787 140.005 30.8969 140.005 26.5695C140.005 22.242 142.511 19.4384 146.408 19.4384C150.305 19.4384 152.643 22.0592 152.643 26.2495V27.2247H142.878V27.3923C142.878 29.7541 144.36 31.2931 146.607 31.2931C148.181 31.2931 149.418 30.5464 149.8 29.3579H152.49ZM142.893 25.2438H149.816C149.754 23.1258 148.394 21.7392 146.423 21.7392C144.452 21.7392 143.046 23.1563 142.893 25.2438Z" fill="white"/>
<path d="M45.9043 9.33507V1.53351H41.3353V9.33507H39.9142V0.238325H47.2948V9.33507H45.889H45.9043Z" fill="white"/>
<path d="M56.173 5.89139C56.173 8.07034 55.0728 9.44171 53.3308 9.44171C52.3528 9.44171 51.5735 9.01506 51.2068 8.28366H51.0998V11.6054H49.7398V2.46297H51.054V3.59054H51.1609C51.5735 2.81343 52.3834 2.34107 53.3155 2.34107C55.0728 2.34107 56.173 3.6972 56.173 5.87615V5.89139ZM54.7824 5.89139C54.7824 4.44383 54.0948 3.56006 52.9488 3.56006C51.8027 3.56006 51.0845 4.45907 51.0845 5.89139C51.0845 7.32371 51.8027 8.22271 52.9335 8.22271C54.0643 8.22271 54.7824 7.35418 54.7824 5.89139Z" fill="white"/>
<path d="M63.9509 7.47608C63.6453 8.71031 62.5451 9.45695 60.9711 9.45695C58.9999 9.45695 57.7927 8.11605 57.7927 5.92186C57.7927 3.72767 59.0305 2.34107 60.9711 2.34107C62.9118 2.34107 64.0426 3.65149 64.0426 5.79996V6.27232H59.1833V6.34851C59.2291 7.55227 59.932 8.31414 61.017 8.31414C61.8421 8.31414 62.4075 8.02463 62.652 7.47608H63.9662H63.9509ZM62.6367 5.26665C62.6062 4.1848 61.9491 3.48388 60.9406 3.48388C59.932 3.48388 59.2291 4.1848 59.1527 5.26665H62.6367Z" fill="white"/>
<path d="M65.097 11.1332V8.19235H65.6471C66.1513 7.8876 66.3805 7.04954 66.4417 6.12006L66.7014 2.46308H71.6524V8.17711H72.722V11.1179H71.469V9.31992H66.35V11.1179H65.0817L65.097 11.1332ZM67.8933 3.62112L67.71 6.21148C67.6488 6.98859 67.4808 7.67428 67.1751 8.10092V8.20759H70.323V3.62112H67.8933Z" fill="white"/>
<path d="M73.9287 7.38466H75.2734C75.4109 7.99415 75.9763 8.2989 76.7709 8.2989C77.6725 8.2989 78.2379 7.90273 78.2379 7.27799C78.2379 6.62279 77.7336 6.3028 76.7709 6.3028H75.7471V5.25142H76.7556C77.5808 5.25142 77.9934 4.93143 77.9934 4.36765C77.9934 3.86481 77.5961 3.48388 76.7556 3.48388C75.9916 3.48388 75.4415 3.80386 75.3498 4.35241H74.0357C74.1732 3.13342 75.197 2.34107 76.7404 2.34107C78.3754 2.34107 79.3075 3.07247 79.3075 4.23051C79.3075 4.91619 78.8644 5.47998 78.2226 5.63235V5.73901C79.1089 5.95234 79.5673 6.51612 79.5673 7.27799C79.5673 8.58841 78.4518 9.44171 76.7556 9.44171C75.2581 9.44171 74.0357 8.75602 73.9134 7.36942L73.9287 7.38466Z" fill="white"/>
<path d="M81.157 7.38466C81.157 6.15042 82.0738 5.43427 83.7089 5.34284L85.5731 5.23618V4.64192C85.5731 3.91052 85.0994 3.51435 84.1673 3.51435C83.4032 3.51435 82.8837 3.78862 82.7309 4.27622H81.4168C81.5543 3.10294 82.6698 2.34107 84.2284 2.34107C85.9551 2.34107 86.9331 3.19437 86.9331 4.64192V9.33505H85.619V8.37509H85.512C85.0994 9.06077 84.3507 9.45695 83.4491 9.45695C82.1197 9.45695 81.157 8.6646 81.157 7.39989V7.38466ZM85.5884 6.80563V6.22661L83.9075 6.33327C82.9601 6.39422 82.5322 6.71421 82.5322 7.32371C82.5322 7.9332 83.0671 8.2989 83.8006 8.2989C84.8244 8.2989 85.5884 7.64369 85.5884 6.80563Z" fill="white"/>
<path d="M90.5393 6.33336V9.33514H89.1794V2.4783H90.5393V5.26675H90.845L93.3204 2.4783H94.9249L91.9604 5.66292L95.0472 9.33514H93.351L90.845 6.33336H90.5393Z" fill="white"/>
<path d="M96.0858 7.38466C96.0858 6.15042 97.0027 5.43427 98.6377 5.34284L100.502 5.23618V4.64192C100.502 3.91052 100.028 3.51435 99.0961 3.51435C98.3321 3.51435 97.8126 3.78862 97.6598 4.27622H96.3456C96.4831 3.10294 97.5986 2.34107 99.1573 2.34107C100.884 2.34107 101.862 3.19437 101.862 4.64192V9.33505H100.548V8.37509H100.441C100.028 9.06077 99.2795 9.45695 98.3779 9.45695C97.0485 9.45695 96.0858 8.6646 96.0858 7.39989V7.38466ZM100.502 6.80563V6.22661L98.8211 6.33327C97.8737 6.39422 97.4458 6.71421 97.4458 7.32371C97.4458 7.9332 97.9807 8.2989 98.7141 8.2989C99.7379 8.2989 100.502 7.64369 100.502 6.80563Z" fill="white"/>
<path d="M103.726 7.38466H105.071C105.208 7.99415 105.774 8.2989 106.568 8.2989C107.47 8.2989 108.035 7.90273 108.035 7.27799C108.035 6.62279 107.531 6.3028 106.568 6.3028H105.545V5.25142H106.553C107.378 5.25142 107.791 4.93143 107.791 4.36765C107.791 3.86481 107.394 3.48388 106.553 3.48388C105.789 3.48388 105.239 3.80386 105.147 4.35241H103.833C103.971 3.13342 104.995 2.34107 106.538 2.34107C108.173 2.34107 109.105 3.07247 109.105 4.23051C109.105 4.91619 108.662 5.47998 108.02 5.63235V5.73901C108.906 5.95234 109.365 6.51612 109.365 7.27799C109.365 8.58841 108.249 9.44171 106.553 9.44171C105.056 9.44171 103.833 8.75602 103.711 7.36942L103.726 7.38466Z" fill="white"/>
<path d="M115.08 2.46308H118.182C119.527 2.46308 120.321 3.14876 120.321 4.21538C120.321 4.9163 119.832 5.54104 119.16 5.66294V5.7696C120.046 5.87626 120.627 6.51623 120.627 7.35429C120.627 8.55805 119.725 9.33515 118.213 9.33515H115.08V2.46308ZM116.425 3.49922V5.282H117.769C118.595 5.282 118.977 4.96201 118.977 4.38299C118.977 3.84968 118.64 3.49922 117.907 3.49922H116.409H116.425ZM116.425 6.27243V8.28377H118.029C118.839 8.28377 119.267 7.93331 119.267 7.2781C119.267 6.59242 118.778 6.27243 117.861 6.27243H116.425Z" fill="white"/>
</svg>

<svg width="153" height="38" fill="none" xmlns="http://www.w3.org/2000/svg"><path d="M23.198 17.869c-.046-4.19 3.438-6.232 3.606-6.323-1.97-2.865-5.027-3.261-6.097-3.292-2.567-.274-5.058 1.524-6.356 1.524-1.3 0-3.347-1.509-5.517-1.463-2.796.046-5.41 1.661-6.83 4.16-2.95 5.104-.749 12.601 2.078 16.73 1.421 2.027 3.071 4.282 5.241 4.19 2.124-.09 2.919-1.34 5.47-1.34 2.553 0 3.27 1.34 5.486 1.295 2.277-.03 3.714-2.026 5.074-4.068 1.635-2.316 2.292-4.602 2.322-4.709-.046-.015-4.416-1.676-4.462-6.704h-.015ZM19.027 5.542c1.146-1.417 1.925-3.352 1.696-5.318-1.65.076-3.713 1.143-4.905 2.53-1.054 1.219-1.986 3.23-1.742 5.12 1.85.136 3.76-.93 4.951-2.332ZM49.987 28.291h-7.228l-1.742 5.12h-3.056l6.846-18.925h3.178l6.846 18.925h-3.117l-1.742-5.12h.015Zm-6.479-2.361h5.73l-2.827-8.305h-.076l-2.827 8.305ZM69.638 26.508c0 4.282-2.308 7.04-5.776 7.04-1.971 0-3.53-.884-4.355-2.407h-.061v6.826h-2.843V19.606h2.75v2.3h.047c.794-1.477 2.475-2.437 4.4-2.437 3.515 0 5.823 2.773 5.823 7.04h.015Zm-2.919 0c0-2.788-1.451-4.632-3.652-4.632-2.2 0-3.637 1.874-3.637 4.632 0 2.758 1.467 4.648 3.637 4.648s3.652-1.829 3.652-4.648ZM84.858 26.508c0 4.282-2.308 7.04-5.777 7.04-1.97 0-3.53-.884-4.355-2.407h-.06v6.826h-2.843V19.606h2.75v2.3h.046c.795-1.477 2.476-2.437 4.401-2.437 3.515 0 5.822 2.773 5.822 7.04h.016Zm-2.92 0c0-2.788-1.45-4.632-3.651-4.632-2.2 0-3.637 1.874-3.637 4.632 0 2.758 1.467 4.648 3.637 4.648s3.652-1.829 3.652-4.648ZM94.928 28.139c.214 1.874 2.032 3.108 4.538 3.108 2.507 0 4.111-1.234 4.111-2.925 0-1.463-1.039-2.347-3.499-2.956l-2.46-.595c-3.484-.838-5.104-2.468-5.104-5.104 0-3.261 2.857-5.5 6.907-5.5 4.049 0 6.754 2.239 6.845 5.5h-2.872c-.168-1.89-1.742-3.033-4.02-3.033-2.276 0-3.85 1.159-3.85 2.835 0 1.34.993 2.118 3.438 2.727l2.094.518c3.896.915 5.516 2.484 5.516 5.242 0 3.535-2.827 5.76-7.32 5.76-4.202 0-7.044-2.164-7.227-5.593h2.903v.016ZM112.714 16.345v3.26h2.629v2.24h-2.629v7.604c0 1.189.52 1.737 1.681 1.737.291 0 .749-.046.932-.06v2.224c-.32.076-.947.137-1.573.137-2.797 0-3.897-1.051-3.897-3.718v-7.908h-2.017v-2.24h2.017v-3.26h2.857v-.016ZM116.856 26.509c0-4.343 2.567-7.07 6.555-7.07 3.989 0 6.556 2.727 6.556 7.07 0 4.342-2.537 7.07-6.556 7.07-4.018 0-6.555-2.713-6.555-7.07Zm10.238 0c0-2.972-1.375-4.74-3.667-4.74s-3.668 1.768-3.668 4.74c0 2.97 1.36 4.738 3.668 4.738 2.307 0 3.667-1.737 3.667-4.738ZM132.335 19.606h2.705v2.346h.061c.428-1.554 1.696-2.498 3.331-2.498.412 0 .749.06.978.106v2.652c-.229-.092-.718-.168-1.268-.168-1.834 0-2.965 1.234-2.965 3.17v8.182h-2.842v-13.79ZM152.49 29.358c-.382 2.499-2.827 4.22-5.96 4.22-4.019 0-6.525-2.681-6.525-7.009 0-4.327 2.506-7.13 6.403-7.13s6.235 2.62 6.235 6.81v.976h-9.765v.167c0 2.362 1.482 3.901 3.729 3.901 1.574 0 2.811-.747 3.193-1.935h2.69Zm-9.597-4.114h6.923c-.062-2.118-1.422-3.505-3.393-3.505-1.971 0-3.377 1.417-3.53 3.505ZM45.904 9.335V1.534h-4.569v7.801h-1.42V.238h7.38v9.097h-1.406.015ZM56.173 5.891c0 2.18-1.1 3.55-2.842 3.55-.978 0-1.758-.426-2.124-1.157H51.1v3.321h-1.36V2.463h1.314v1.128h.107c.413-.778 1.222-1.25 2.154-1.25 1.758 0 2.858 1.356 2.858 3.535v.015Zm-1.39 0c0-1.447-.688-2.33-1.834-2.33-1.146 0-1.864.898-1.864 2.33 0 1.433.718 2.332 1.849 2.332 1.13 0 1.848-.869 1.848-2.332ZM63.95 7.476c-.305 1.234-1.405 1.981-2.979 1.981-1.971 0-3.178-1.341-3.178-3.535s1.238-3.58 3.178-3.58 3.072 1.31 3.072 3.458v.472h-4.86v.077c.046 1.203.749 1.965 1.834 1.965.825 0 1.39-.29 1.635-.838h1.314-.015Zm-1.313-2.21c-.03-1.081-.688-1.782-1.696-1.782-1.009 0-1.712.7-1.788 1.783h3.484ZM65.097 11.133v-2.94h.55c.504-.305.733-1.143.795-2.073l.26-3.657h4.95v5.714h1.07v2.94h-1.253V9.32H66.35v1.798h-1.268l.015.015Zm2.796-7.512-.183 2.59c-.061.778-.23 1.463-.535 1.89v.107h3.148V3.62h-2.43ZM73.929 7.385h1.344c.138.61.703.914 1.498.914.901 0 1.467-.396 1.467-1.021 0-.655-.504-.975-1.467-.975h-1.024V5.25h1.009c.825 0 1.237-.32 1.237-.883 0-.503-.397-.884-1.237-.884-.764 0-1.314.32-1.406.868h-1.314c.137-1.219 1.161-2.01 2.704-2.01 1.635 0 2.568.73 2.568 1.889 0 .685-.444 1.249-1.085 1.401v.107c.886.213 1.344.777 1.344 1.539 0 1.31-1.115 2.164-2.811 2.164-1.498 0-2.72-.686-2.843-2.073l.016.016ZM81.157 7.385c0-1.235.917-1.95 2.552-2.042l1.864-.107v-.594c0-.731-.474-1.128-1.406-1.128-.764 0-1.283.275-1.436.762h-1.314c.137-1.173 1.253-1.935 2.811-1.935 1.727 0 2.705.853 2.705 2.3v4.694H85.62v-.96h-.107c-.413.686-1.161 1.082-2.063 1.082-1.33 0-2.292-.792-2.292-2.057v-.015Zm4.431-.58v-.578l-1.68.106c-.948.061-1.376.381-1.376.99 0 .61.535.976 1.269.976 1.023 0 1.787-.655 1.787-1.493ZM90.54 6.333v3.002h-1.36V2.478h1.36v2.789h.305l2.475-2.789h1.605L91.96 5.663l3.087 3.672h-1.696l-2.506-3.002h-.306ZM96.086 7.385c0-1.235.917-1.95 2.552-2.042l1.864-.107v-.594c0-.731-.474-1.128-1.406-1.128-.764 0-1.283.275-1.436.762h-1.314c.137-1.173 1.253-1.935 2.811-1.935 1.727 0 2.705.853 2.705 2.3v4.694h-1.314v-.96h-.107c-.413.686-1.162 1.082-2.063 1.082-1.33 0-2.292-.792-2.292-2.057v-.015Zm4.416-.58v-.578l-1.68.106c-.948.061-1.376.381-1.376.99 0 .61.535.976 1.268.976 1.024 0 1.788-.655 1.788-1.493ZM103.726 7.385h1.345c.137.61.703.914 1.497.914.902 0 1.467-.396 1.467-1.021 0-.655-.504-.975-1.467-.975h-1.023V5.25h1.008c.825 0 1.238-.32 1.238-.883 0-.503-.397-.884-1.238-.884-.764 0-1.314.32-1.406.868h-1.314c.138-1.219 1.162-2.01 2.705-2.01 1.635 0 2.567.73 2.567 1.889 0 .685-.443 1.249-1.085 1.401v.107c.886.213 1.345.777 1.345 1.539 0 1.31-1.116 2.164-2.812 2.164-1.497 0-2.72-.686-2.842-2.073l.015.016ZM115.08 2.463h3.102c1.345 0 2.139.686 2.139 1.752 0 .701-.489 1.326-1.161 1.448v.107c.886.106 1.467.746 1.467 1.584 0 1.204-.902 1.981-2.414 1.981h-3.133V2.463Zm1.345 1.036v1.783h1.344c.826 0 1.208-.32 1.208-.899 0-.533-.337-.884-1.07-.884h-1.498.016Zm0 2.773v2.012h1.604c.81 0 1.238-.35 1.238-1.006 0-.686-.489-1.006-1.406-1.006h-1.436Z" fill="#fff"/></svg>
